X:818
T:Reel 818
M:4/4
K:Amaj
L:1/8
 (3E,F,G, |A,2CB, E,A,CA,|G,A,B,C DFED|CB,CD E2FG|AFEC B,2 (3E,F,G, |A,B,CD EA,B,A,|FBBA GBED|CA,CA, AA,GA,|G,E,F,G, A,2|FG|AGAE FEFE|DB,CA, B,A,F,G,|AGAF EACA,|B,A,B,A, B,A,F,G,|A,B,CD EAGA|FBBA GBAG|AGFG AGAE| (3FGA GB AFEC|
